icon-svg/nanoleaf-umbra-cono.svg

<svg xmlns="http://www.w3.org/2000/svg" viewBox="0 0 24 24"><path fill="#44739e" d="M12.76 18.012A10.34 10.34 0 0 0 14.56 12a10.34 10.34 0 0 0-1.801-6.012 6.6 6.6 0 0 0-1.991-1.86 4.8 4.8 0 0 0-4.976 0 6.6 6.6 0 0 0-1.989 1.86A10.34 10.34 0 0 0 2.002 12a10.34 10.34 0 0 0 1.801 6.012 6.6 6.6 0 0 0 1.991 1.86 4.8 4.8 0 0 0 4.976 0 6.6 6.6 0 0 0 1.99-1.86m-4.479 1.801a4.83 4.83 0 0 1-3.865-2.242A9.57 9.57 0 0 1 2.759 12a9.57 9.57 0 0 1 1.657-5.569 4.83 4.83 0 0 1 3.865-2.242 4.83 4.83 0 0 1 3.866 2.242A9.57 9.57 0 0 1 13.808 12a9.57 9.57 0 0 1-1.657 5.569 4.83 4.83 0 0 1-3.87 2.242Zm0-15.217c-2.878 0-5.211 3.343-5.211 7.469s2.333 7.47 5.211 7.47c2.452 0 4.509-2.428 5.064-5.703q.021-.121.039-.244l.012-.086c.007-.056.1-1.007.1-1.44-.003-4.123-2.337-7.466-5.215-7.466m7.458 6.049h-.682a.12.12 0 0 1-.115-.064l-.528-1.021a11.7 11.7 0 0 1 .254 2.44 12 12 0 0 1-.133 1.775l.036-.012.432-.885a.12.12 0 0 1 .092-.065l1.151-.419c.28-.121.239-.537.208-.71-.085-.476-.409-1.021-.715-1.039m5.848-3.235a1.5 1.5 0 0 0-.944-.537.26.26 0 0 0-.175.053.2.2 0 0 0-.048.076v.014l-.011.009-3.763 3.321a.74.74 0 0 0-.157.911 1.337 1.337 0 0 0 2.063.346l3.421-3.077.016-.035a1.23 1.23 0 0 0-.402-1.081m-8.341-.88a9.7 9.7 0 0 1 1.017 2.409l.865 1.601h.615a.78.78 0 0 1 .544.42.85.85 0 0 1 .283-.692l.468-.412-1.858-3.262c-.361-.6-.722-.816-1.073-.644l-.565.279a.63.63 0 0 0-.296.301m7.076 10.873c.514-.333.669-.611.501-.901l-2.602-4.564a1.4 1.4 0 0 1-.568.117 1.5 1.5 0 0 1-.242-.02 1.44 1.44 0 0 1-.888-.519q.019.075.033.15c.075.42-.024.723-.273.829l-.083.03 2.695 4.978c.138.256.271.4.931.182ZM16.1 12.562l-.983.358h-.008l-.009.006-.436.893c-.015.032-.072.054-.146.07a11 11 0 0 1-.433 1.75l2.457-2.258Z"/></svg>

<?xml version="1.0" encoding="UTF-8"?>
<svg width="24px" fill="#44739e" height="24px" viewBox="0 0 24 24" version="1.1" xmlns="http://www.w3.org/2000/svg" xmlns:xlink="http://www.w3.org/1999/xlink">
            <path d="M 12.753,18.009 A 10.327,10.327 0 0 0 14.552,12 10.327,10.327 0 0 0 12.752,5.991 6.578,6.578 0 0 0 10.762,4.132 4.8,4.8 0 0 0 5.788,4.132 6.578,6.578 0 0 0 3.8,5.991 10.327,10.327 0 0 0 2,12 a 10.327,10.327 0 0 0 1.8,6.009 6.578,6.578 0 0 0 1.99,1.859 4.8,4.8 0 0 0 4.974,0 6.578,6.578 0 0 0 1.989,-1.859 z m -4.477,1.8 A 4.826,4.826 0 0 1 4.413,17.568 9.563,9.563 0 0 1 2.757,12 9.563,9.563 0 0 1 4.413,6.434 4.826,4.826 0 0 1 8.276,4.193 4.826,4.826 0 0 1 12.14,6.434 9.563,9.563 0 0 1 13.8,12 9.563,9.563 0 0 1 12.144,17.566 4.826,4.826 0 0 1 8.276,19.807 Z m 0,-15.209 c -2.876,0 -5.208,3.341 -5.208,7.465 0,4.124 2.332,7.466 5.208,7.466 2.451,0 4.507,-2.427 5.061,-5.7 0.014,-0.081 0.027,-0.162 0.039,-0.244 l 0.012,-0.086 c 0.007,-0.056 0.1,-1.006 0.1,-1.439 C 13.485,7.941 11.153,4.6 8.276,4.6 Z m 7.454,6.046 H 15.048 A 0.118,0.118 0 0 1 14.933,10.582 L 14.406,9.561 A 11.688,11.688 0 0 1 14.66,12 a 11.777,11.777 0 0 1 -0.133,1.774 0.186,0.186 0 0 0 0.036,-0.012 l 0.431,-0.884 a 0.118,0.118 0 0 1 0.092,-0.065 l 1.151,-0.419 c 0.28,-0.121 0.239,-0.537 0.208,-0.71 -0.085,-0.476 -0.409,-1.02 -0.715,-1.038 z M 21.575,7.412 A 1.489,1.489 0 0 0 20.631,6.876 0.255,0.255 0 0 0 20.457,6.929 0.174,0.174 0 0 0 20.409,7.005 v 0.014 l -0.011,0.009 -3.761,3.319 a 0.743,0.743 0 0 0 -0.157,0.91 1.336,1.336 0 0 0 2.062,0.346 l 3.419,-3.075 v 0 L 21.977,8.493 A 1.233,1.233 0 0 0 21.575,7.412 Z M 13.238,6.533 a 9.727,9.727 0 0 1 1.017,2.408 l 0.864,1.6 h 0.615 a 0.784,0.784 0 0 1 0.544,0.42 0.848,0.848 0 0 1 0.283,-0.692 L 17.028,9.857 15.171,6.597 C 14.811,5.997 14.45,5.781 14.099,5.953 L 13.534,6.232 A 0.629,0.629 0 0 0 13.238,6.533 Z M 20.311,17.4 c 0.513,-0.333 0.668,-0.611 0.5,-0.9 l -2.6,-4.562 a 1.437,1.437 0 0 1 -0.568,0.117 1.519,1.519 0 0 1 -0.242,-0.02 1.438,1.438 0 0 1 -0.887,-0.519 q 0.019,0.075 0.033,0.15 c 0.075,0.42 -0.024,0.723 -0.273,0.829 v 0 l -0.083,0.03 2.693,4.975 c 0.138,0.256 0.271,0.4 0.931,0.182 z m -4.22,-4.838 -0.983,0.358 H 15.1 l -0.009,0.006 -0.435,0.892 c -0.015,0.032 -0.072,0.054 -0.146,0.07 a 10.827,10.827 0 0 1 -0.433,1.749 l 2.456,-2.257 z"/>

</svg>
